X:630
T:Reel 630
M:4/4
K:Gmaj
L:1/8
 (3def |g2 (3fed eAAc| (3BAG dG Bdef|g2fd ecAc||dcBA GcBA:||2 (3def gd g2| (3def |g2gg gbag|fgab c'baf|gggf gbag|fede fgef|g2gf gbag|fdef d2dc'|bbc'd' c'bagag|fdef gage|
